X:209
T:Dame, vos hom vous estrine
C:Adam de la Halle
R:Chanson
O:XIIIe
M:6/8
L:1/8
Q:1/4=80
K:D 
V:1
%%continueall 1
%%maxshrink 0.6
de/2f/2g fef | ddc B/2A/2B2 | Bd2 edc | def/2e/2 ed2 | 
gf2 de2 | d/2=c/2B/2A/2G AB2 | GA/2G/2F AB2 | cd2 =cBB/2A/2 | 
AG2 B/2=c/2BA | BG2 AA2 | d3 ef2 | gfe de2 | 
f/2e/2ed gfe | fd2 efe | c3 cd2 | ef/2e/2d ee/2d/2c | 
B3 cBA | Bd2 d/2=c/2BA | B/2=c/2BA G3 |]




%%header "$P0	 $IR 	$P1"
%%footer $D - Éditions Galouvielle - 2009 - À usage librement privé dans le cadre familial

